brandFactory_export/2.Regular/Documento_Archivo imagen_2Regular.svg

<?xml version="1.0" encoding="UTF-8"?>
<svg width="24px" height="24px" viewBox="0 0 24 24" version="1.1" xmlns="http://www.w3.org/2000/svg" xmlns:xlink="http://www.w3.org/1999/xlink">
    <title>2.Regular/Documento_Archivo imagen_2Regular</title>
    <g id="Symbols" stroke="none" stroke-width="1" fill="none" fill-rule="evenodd">
        <g id="2.Regular/Documento_Archivo-imagen_2Regular" fill="#5CB615" fill-rule="nonzero">
            <path d="M19.0840336,22.1647059 C19.1983193,22.1647059 19.312605,22.0504202 19.312605,21.9630252 L19.312605,8.24201681 L16.5798319,8.24201681 C15.3831933,8.24201681 14.3478992,7.84537815 13.5882353,7.09915966 C12.8184874,6.34285714 12.4151261,5.31428571 12.4151261,4.1210084 L12.4151261,1.45882353 L4.69411765,1.45882353 C4.60672269,1.45882353 4.47226891,1.58991597 4.46554622,1.6605042 L4.46554622,21.9630252 C4.46554622,22.0336134 4.58319328,22.1647059 4.69411765,22.1647059 L19.0840336,22.1647059 Z M18.707563,6.78319328 L13.8470588,2 L13.8470588,4.11764706 C13.8470588,4.90756303 14.102521,5.57310924 14.5831933,6.04705882 C15.0705882,6.52773109 15.7596639,6.77983193 16.5798319,6.77983193 L18.707563,6.77983193 L18.707563,6.78319328 Z M20.687395,6.91092437 C20.7243697,6.99831933 20.7445378,7.09579832 20.7445378,7.19663866 L20.7445378,21.9630252 C20.7445378,22.8638655 19.9815126,23.6235294 19.0806723,23.6235294 L4.6907563,23.6235294 C3.80672269,23.6235294 3.02689076,22.8470588 3.02689076,21.9630252 L3.02689076,1.6605042 C3.02689076,0.789915966 3.82016807,0 4.6907563,0 L13.4504202,0 C13.7260504,0 13.9815126,0.104201681 14.1764706,0.299159664 L20.4319328,6.45042017 C20.5630252,6.57478992 20.6369748,6.7394958 20.687395,6.91092437 L20.687395,6.91092437 Z M16.9361345,19.6537815 L16.9361345,10.5546218 L6.83865546,10.5378151 L6.83865546,19.6403361 L16.9361345,19.6537815 L16.9361345,19.6537815 Z M16.9529412,9.27394958 C17.605042,9.27394958 18.1798319,9.79831933 18.1798319,10.3966387 L18.1798319,19.794958 C18.1798319,20.3932773 17.605042,20.9176471 16.9529412,20.9176471 L6.82521008,20.9176471 C6.15966387,20.9176471 5.59831933,20.4033613 5.59831933,19.794958 L5.59831933,10.3966387 C5.59831933,9.78823529 6.16302521,9.27394958 6.82521008,9.27394958 L16.9529412,9.27394958 Z M9.02016807,14.5647059 C8.45210084,14.5647059 7.98823529,14.0941176 7.98823529,13.5159664 C7.98823529,12.9378151 8.4487395,12.4672269 9.02016807,12.4672269 C9.58823529,12.4672269 10.0487395,12.9378151 10.0487395,13.5159664 C10.0487395,14.0941176 9.58823529,14.5647059 9.02016807,14.5647059 Z M8.11260504,18.7159664 C7.93445378,18.7159664 7.75630252,18.6386555 7.63529412,18.487395 C7.41680672,18.2184874 7.45378151,17.8218487 7.71596639,17.5966387 L10.6470588,15.112605 C10.8890756,14.9109244 11.2420168,14.9210084 11.4705882,15.1394958 L11.7932773,15.4487395 L13.6655462,13.9327731 C13.887395,13.7512605 14.2033613,13.7478992 14.4285714,13.9260504 L16.2302521,15.3310924 C16.502521,15.5428571 16.5563025,15.9394958 16.3478992,16.2184874 C16.1394958,16.497479 15.7462185,16.5478992 15.4773109,16.3361345 L14.0588235,15.2336134 L12.707563,16.3260504 L13.5680672,17.1495798 C13.8201681,17.3882353 13.8302521,17.7882353 13.594958,18.0436975 C13.3596639,18.2957983 12.9663866,18.3092437 12.7176471,18.0705882 L11.0235294,16.4470588 L8.51596639,18.5714286 C8.39495798,18.6689076 8.25378151,18.7159664 8.11260504,18.7159664 L8.11260504,18.7159664 Z" id="Documento_Archivo-imagen_2Regular"></path>
        </g>
    </g>
</svg>

<svg width="24" height="24" viewBox="0 0 24 24" xmlns="http://www.w3.org/2000/svg"><path d="M19.084 22.165c.114 0 .229-.115.229-.202V8.242H16.58c-1.197 0-2.232-.397-2.992-1.143-.77-.756-1.173-1.785-1.173-2.978V1.459h-7.72c-.088 0-.223.13-.23.202v20.302c0 .07.118.202.23.202h14.389zm-.376-15.382L13.848 2v2.118c0 .79.255 1.455.735 1.93.488.48 1.177.732 1.997.732h2.128v.003zm1.98.128a.735.735 0 01.057.286v14.766c0 .9-.763 1.66-1.664 1.66H4.69c-.884 0-1.664-.776-1.664-1.66V1.661C3.027.79 3.82 0 4.69 0h8.76c.275 0 .53.104.725.3l6.256 6.15c.131.125.205.29.255.46zm-3.752 12.743v-9.1L6.84 10.539v9.102l10.097.014zm.017-10.38c.652 0 1.227.524 1.227 1.123v9.398c0 .598-.575 1.123-1.227 1.123H6.825c-.665 0-1.227-.515-1.227-1.123v-9.398c0-.609.565-1.123 1.227-1.123h10.128zm-7.933 5.29c-.568 0-1.032-.47-1.032-1.048 0-.578.46-1.049 1.032-1.049.568 0 1.029.47 1.029 1.049a1.04 1.04 0 01-1.029 1.049zm-.907 4.152a.61.61 0 01-.478-.229.643.643 0 01.081-.89l2.931-2.484a.617.617 0 01.824.026l.322.31 1.873-1.516a.607.607 0 01.763-.007l1.801 1.405a.641.641 0 01.118.887.613.613 0 01-.87.118l-1.42-1.102-1.35 1.092.86.824a.638.638 0 01.027.894.615.615 0 01-.877.027l-1.694-1.624-2.508 2.124a.639.639 0 01-.403.145z" fill="#5CB615" fill-rule="nonzero"/></svg>
